!!!!SEGMENT: pl-wtm--r-2036--pc0_smietanski-emil-wladyslaw--3me-scherzo-pc0.krn
!!!cenid: 18xx:2018a
!!!COM: Śmietański, Emil Władysław
!!!COM-rism: pe50041781
!!!CDT: 1845-1886
!!!CNT: Polish
!!!OTL: 3me Scherzo
!!!PDT: 1877
!!!AGN: Secular; Scherzo
!!!SMS-siglum: PL-Wtm
!!!SMS-shelfmark: R 2036
!!!NIFC-rismID: 1001112680
!!!URL-scan: http://repozytorium.nifc.pl/skany/pl-wtm-nut--r2036
!!!ONB-nifc:
!!!SMS-variant:
!!!SMS-altvar:
**kern	**kern	**dynam
*part1	*part1	*part1
*staff2	*staff1	*
*I"Fortepian	*I"Fortepian	*
*I'pf	*I'pf	*
*clefF4	*clefG2	*
*k[b-e-a-]	*k[b-e-a-]	*
*M3/4	*M3/4	*
*>[A,A1,A,A2,B,B1,B,B2,C,D,D1,D,D2,E,E1,E,E2,A,A2,B,B2,F]	*>[A,A1,A,A2,B,B1,B,B2,C,D,D1,D,D2,E,E1,E,E2,A,A2,B,B2,F]	*>[A,A1,A,A2,B,B1,B,B2,C,D,D1,D,D2,E,E1,E,E2,A,A2,B,B2,F]
=1	=1	=1
*>A	*>A	*>A
*	*tremolo	*
!	!LO:TX:t=P:problem:arpeggio z prawej strony akordu:global	!
!LO:N:vis=1	!LO:TX:a:i:t=Allegro. ma non troppo.	!
2r	8ccL 8g 8e- 8c/	p
.	8cc 8g 8e- 8c/	.
.	8cc 8g 8e- 8c/	.
.	8cc 8g 8e- 8c/	.
4r	8cc 8g 8e- 8c/	.
.	8ccJ 8g 8e- 8c/	.
=2	=2	=2
!LO:N:vis=1	!	!
2r	4cc 4g 4e- 4c'>/	.
.	4r	.
4r	4cc 4a- 4f 4c'>/	.
=3	=3	=3
4r	4cc 4g 4e- 4c'>/	.
4r	4cc 4g 4e- 4c'>/	.
4Bn 4G'\	4dd 4g 4d'>/	.
=4	=4	=4
4c 4C'\	4ee- 4g 4e-'>/	.
4r	4r	.
4r	4r	.
=5	=5	=5
*	*2\right	*
!LO:N:vis=1	!	!
2r	8ffL 8cc 8a- 8f\	.
.	8ff 8cc 8a- 8f\	.
.	8ff 8cc 8a- 8f\	.
.	8ff 8cc 8a- 8f\	.
4r	8ff 8cc 8a- 8f\	.
.	8ffJ 8cc 8a- 8f\	.
*	*Xtremolo	*
=6	=6	=6
!LO:N:vis=1	!	!
2r	4ff 4cc 4a- 4f'\	.
.	4r	.
4r	4ff 4dd-X 4b- 4f'\	.
=7	=7	=7
4r	4ff 4cc 4a- 4f'\	.
4r	4ff 4cc 4a- 4f'\	.
4en 4c\	4gg 4cc 4g'\	.
!!LO:LB:g=original
=8	=8	=8
4f 4F\	4aa- 4cc 4a-\	.
4r	4r	.
4r	4r	.
=9	=9	=9
*	*^	*
*	*	*2\left	*
2F 2D-X\	4aa-/	2.a-\	.
.	4een/	.	.
4f 4d-X 4A- 4F\	4ff/	.	.
=10	=10	=10	=10
2f 2d-X 2A- 2F\	4dd-X/	2a-\	.
.	8ee-/L	.	.
.	8dd-/J	.	.
4e- 4c 4A- 4G-X\	4cc/	4a-\	.
=11	=11	=11	=11
*	*	*	*2\right
2f 2d-X 2A- 2F\	4dd-X/	2a-\	.
.	8een/L	.	.
.	8ff/	.	.
4F 4D-X\	8g/	4ryy	.
.	8a-/J	.	.
*	*v	*v	*
=12	=12	=12
*^	*	*
[2F/	4D-X\	4b-M\	.
.	4C\	4a-\	.
4F/]	4BBn\	4aa- 4a-\	.
*v	*v	*	*
=13	=13	=13
*	*^	*
2E- 2C\	4gg/	2.g\	.
.	4dd/	.	.
4e- 4c 4G 4E-\	4ee-/	.	.
=14	=14	=14	=14
2e- 2c 2G 2E-\	4cc/	2g\	.
.	8dd/L	.	.
.	8cc/J	.	.
4d 4Bn 4A- 4F\	4bn/	4a-\	.
!!LO:LB:g=original
=15	=15	=15	=15
*	*	*	*2\right
2e- 2c 2G 2E-\	4cc/	2g\	.
.	8dd/L	.	.
.	8ee-/	.	.
4C 4EE-\	8f#X/	4ryy	.
.	8g/J	.	.
*	*v	*v	*
=16	=16	=16
4C 4EE-\	4a-M\	.
4E-\	4g\	.
4G 4E- 4C\	4gg 4g\	.
=17	=17	=17
4An 4D\	8ff#XL 8g\	.
.	8gg\	.
4G 4F\	8bn\	.
.	8b\	.
4GG\	8b\	.
.	8b\J	.
=18	=18	=18
4c 4E-\	8bn\L	.
.	8cc\	.
4G\	8g\	.
.	8g\	.
4GG\	8g\	.
.	8g\J	.
=19	=19	=19
4Bn 4F\	8d\L	.
.	8c#X\	.
4G\	8d\	.
.	8e-\	.
4GG\	8f\	.
.	8f#X\J	.
=20	=20	=20
4c 4E-\	8g\L	.
.	8f#X\	.
4G\	8g\	.
.	8cc\	.
4GG\	8ee-\	.
.	8gg\J	.
!!LO:LB:g=original
=21	=21	=21
4Bn 4D\	8ff#XL 8g\	.
.	8gg\	.
4G 4F\	8bn\	.
.	8b\	.
4GG\	8b\	.
.	8b\J	.
=22	=22	=22
!	!LO:TX:b:t=cresc_:problem:dynamics with extention lines	!LO:HP:t=cresc_
4c 4E-\	8bn\L	<
.	8cc\	.
4G\	8g\	.
.	8g\	.
4C\	8g\	.
.	8g\J	.
=23	=23	=23
.	8qg/	.
4B- 4D\	8fL 8d\	.
.	8en\	.
4F\	8f\	.
.	8g\	.
4FF\	8an\	.
.	8b-\J	[[
=24	=24	=24
4A- 4E-\	8ccL 8f\	.
.	8bn\	.
4F\	8cc\	.
.	8ff\	.
4FF\	8een\	.
.	8ff\J	.
=25	=25	=25
!	!	!LO:DY:t=f.
4DD\	4b- 4f 4B-/	f
!	!LO:TX:b:i:t=con fierezza	!
4F 4D\	4r	.
*	*Xtuplet	*
4F 4D\	12b-/L	.
.	12cc/	.
.	12b-/J	.
=26	=26	=26
4F 4E-\	4an 4f 4An/	.
4F 4E-\	4r	.
4F 4D\	4b- 4f 4B-/	.
!!LO:LB:g=original
=27	=27	=27
4FF 4FFF/	[2.dd 2.f 2.d\	.
4B- 4F\	.	.
4B- 4F\	.	.
=28	=28	=28
*	*^	*
2.An 2.F\	4dd/]	2.e-\	.
.	4cc/	.	.
.	4f/	.	.
*	*v	*v	*
=29	=29	=29
4B- 4D\	4f/	.
4d 4B- 4F\	8ff\L	.
.	8gg\J	.
4d 4B- 4F\	4ff\	.
=30	=30	=30
4C\	8eenL 8g\	.
.	8ff\J	.
4c 4G\	4ee\	.
4FF\	8ffL 8an\	.
.	8ee-X\J	.
=31	=31	=31
4GG\	8ee-L 8b-\	.
.	8dd\	.
4d 4B- 4G\	8aan\	.
.	8bb-\	.
4F 4FF\	8b-\	.
.	8dd\J	.
=32	=32	=32
*	*^	*
4E- 4EE-\	2.ccTT/	2g\	.
4c 4E-\	.	.	.
4e- 4F\	.	4an\	.
*	*v	*v	*
=33	=33	=33
!	!	!LO:DY:t=p
4BB-\	4b- 4d\	p
4rc	4b- 4f 4d/	.
*Xtuplet	*	*
12B-/L	4b- 4f 4d/	.
12c/	.	.
12B-/J	.	.
!!LO:LB:g=original
=34	=34	=34
4An/	4cc 4f 4e-/	.
4rB	4cc 4f 4e-/	.
4B-/	4b- 4f 4d/	.
=35	=35	=35
8qF/	.	.
*^	*	*
[2.d/	4FF\	4ryy	.
.	2ryy	4b- 4f 4d/	.
.	.	4b- 4f 4d/	.
*v	*v	*	*
=36	=36	=36
4d/]	2.an 2.f 2.e-/	.
4c/	.	.
4F/	.	.
=37	=37	=37
*^	*	*
4F/	4D\	4ryy	.
8f/L	2ryy	4b- 4B-/	.
8g/J	.	.	.
4f/	.	4b- 4B-/	.
*v	*v	*	*
=38	=38	=38
*	*^	*
4C\	8en<L 8G</	4ryy	.
.	8f</J	.	.
2ryy	4cc/	4e</	.
.	8f<L 8An</	4ryy	.
.	8e-X</J	.	.
*	*v	*v	*
=39	=39	=39
4GG\	8e-L 8B-\	.
.	8d\	.
4G\	8an\	.
.	8b-\	.
4FF\	8B-\	.
.	8d\J	.
=40	=40	=40
*	*^	*
*	*	*2\right	*
4EE-\	2.cTT/	2B-\	.
4E-\	.	.	.
4E- 4FF\	.	4An\	.
*	*v	*v	*
!!LO:LB:g=original
=41	=41	=41
*2\right	*	*
2.BB- 2.FF 2.BBB-\	8B-<L 8D</	ff
.	8B-</	.
.	8c</	.
.	8B-</	.
.	8d</	.
.	8B-</J	.
=42	=42	=42
8AAn\L	4.f< 4.c< 4.E-</	.
8FF\	.	.
8GG\	.	.
8FF\	8F</	.
8AA\	4f</	.
8FF\J	.	.
=43	=43	=43
4BB- 4GG\	8B-\L	.
.	8b-\	.
4B- 4G\	8cc\	.
.	8b-\	.
4B- 4G\	8dd\	.
.	8b-\J	.
=44	=44	=44
8An\L	4.ff 4.cc 4.e-\	.
8F\	.	.
8G\	.	.
8F\	8f\	.
8A\	4ff\	.
8F\J	.	.
=45	=45	=45
4BB-\	8d\L	.
.	8dd\	.
*clefG2	*	*
4f 4d 4B-\	8ee-\	.
.	8een\	.
4an 4f 4e- 4B-\	8gg\	.
.	8ff\J	.
=46	=46	=46
4b- 4f 4d 4B-\	8bb-\L	.
.	8an\	.
4r	8b-\	.
.	8bn\	.
4r	8cc\	.
.	8b-X\J	.
*clefF4	*	*
=47	=47	=47
!	!	!LO:HP:t=dim
4F 4D 4BB-\	8dd\L	>
.	8d\	.
4F 4D 4BB-\	8e-\	.
.	8en\	.
!	!LO:TX:b:t=e poco riten:dur=7e:ext=ud:problem:tekst with extention lines	!
4An 4F 4E-\	8g\	.
.	8f\J	.
=48	=48	=48
*>A1	*>A1	*>A1
!	!LO:TX:a:t=P:problem:nieoznaczona I volta	!
4B- 4F 4D\	8b-\L	.
.	8B-\	.
8A-X\L	8d\	.
8G\	8e-\	.
8An\	8f\	.
8Bn\J	8g\J	.
=49:|!	=49:|!	=49:|!
*>A2	*>A2	*>A2
!	!LO:TX:a:t=P:problem:nieoznaczona II volta	!
4B- 4F 4D\	8b-\L	.
.	8An\	.
4r	8B-\	.
.	8c-X\	.
4r	8B-\	.
.	8A\J	.
!!LO:PB:g=original
=50	=50	=50
*>B	*>B	*>B
8D-XL 8GG-X\	8B-L 8G-X/	p
8D- 8GG-\	8B- 8G-/	.
!	!LO:TX:b:i:t=scherzando.	!
8D- 8GG-\	8B- 8G-/	.
8D- 8GG-\	8B- 8G-/	.
8D- 8GG-\	8B- 8G-/	.
8D-J 8GG-\	8B-J 8G-/	.
=51	=51	=51
4D-X 4GG-X\	4B- 4G-X'>/	.
4r	4r	.
4AA-\	4c 4G-'>/	.
=52	=52	=52
4D-X 4AA- 4DD-X\	4d-X 4F'>/	.
4D- 4DD-\	4d- 4F'>/	.
4D- 4DD-\	4f 4d- 4F'>/	.
=53	=53	=53
4D-X 4DD-X\	4a-: 4d-X: 4F'>:/	.
4r	8r	.
.	8d-/	.
4BB- 4BBB-\	[4d- 4G/	.
=54	=54	=54
4AA- 4AAA-\	8d-/L]	.
.	8c/	.
4c 4A- 4G-X 4E-\	8e-/	.
.	8g-X/	.
4c 4A- 4G- 4E-\	8a-/	.
.	8an/J	.
=55	=55	=55
*2\left	*	*
2.c 2.A- 2.G-X 2.E-\	(8b-\L	.
.	8cc\	.
.	8b-\	.
.	8gg-X\)	.
.	(8a-\	.
.	8ff\J)	.
=56	=56	=56
4D-X 4DD-X\	(8f\L	.
.	8g-X\	.
4A- 4F\	8f\	.
.	8dd-X\)	.
4A- 4F\	(8e-\	.
.	8cc\J)	.
!!LO:LB:g=original
=57	=57	=57
2G 2F-X\	(8d-X/L	.
.	8e-/	.
.	8d-/	.
.	8b-/J)	.
4G-X 4E-\	(8c/L	.
.	8a-/J)	.
=58	=58	=58
*tremolo	*tremolo	*
*2\right	*	*
8A-L 8D-X\	8fL 8d-X/	.
8A- 8D-\	8f 8d-/	.
8A- 8D-\	8f 8d-/	.
8A- 8D-\	8f 8d-/	.
8A- 8D-\	8f 8d-/	.
8A-J 8D-\	8fJ 8d-/	.
*Xtremolo	*Xtremolo	*
=59	=59	=59
!LO:SIC:v:n=2:s=4D-	!	!
4A- 4D\	4f 4d-X'/	.
4r	4r	.
4E-\	4g 4d-'/	.
=60	=60	=60
4A- 4E- 4AA-\	4a- 4c'/	.
4A- 4E- 4AA-\	4a- 4c'/	.
4A- 4E- 4AA-\	4cc 4a- 4c'/	.
=61	=61	=61
4A- 4E- 4AA-\	4ee-: 4a-: 4c':/	.
4r	8r	.
.	8a-/	.
4F 4FF\	[4a- 4d/	.
=62	=62	=62
4E- 4EE-\	8a-\L]	.
.	8g\	.
*clefG2	*	*
4g 4e- 4d-X 4B-/	8b-\	.
.	8dd-X\	.
4g 4e- 4d- 4B-/	8ee-\	.
.	8een\J	.
=63	=63	=63
2.g 2.e- 2.d-X 2.B-/	(8ff\L	.
.	8gg\	.
.	8ff\	.
.	8ddd-X\)	.
.	(8ee-\	.
.	8ccc\J)	.
!!LO:LB:g=original
=64	=64	=64
*clefF4	*	*
4A- 4AA-\	(8cc\L	.
.	8dd-X\	.
4e- 4c\	8cc\	.
.	8aa-\)	.
4e- 4c\	(8b-\	.
.	8gg\J)	.
=65	=65	=65
*2\left	*	*
2d 2c-X\	(8a-\L	.
.	8b-\	.
.	8a-\	.
.	8ff\)	.
4d-X 4B-\	(8g\	.
.	8ee-\J)	.
=66	=66	=66
8cL 8A-\	8a-\L	f
8c\	8ee-\	.
8c\	8aa-\	.
!	!LO:TX:b:i:t=marcato il basso	!
8c\	8ee-\	.
8c\	8a-\	.
8c\J	8ee-\J	.
=67	=67	=67
4c\	8aa-\L	.
.	8ee-\	.
4r	8a-\	.
.	8ee-\	.
4d\	8aa-\	.
.	8ff\J	.
=68	=68	=68
4e- 4B- 4E-\	8g\L	.
.	8ee-\	.
4e-\	8gg\	.
.	8aa-\	.
4e-\	8bb-\	.
.	8ccc\J	.
*clefG2	*	*
=69	=69	=69
*	*8va	*
4.b-/	8ddd\L	.
.	8eee-\	.
.	8fff\	.
8e-/	8ggg\	.
4e-/	8aaa-\	.
.	8bbb-\J	.
*	*X8va	*
*clefF4	*	*
=70	=70	=70
8B-L 8G-X\	8g-X\L	.
8B-\	8dd-X\	.
8B-\	8gg-X\	.
8B-\	8dd-\	.
8B-\	8g-\	.
8B-\J	8dd-\J	.
=71	=71	=71
4B-\	8gg-X\L	.
.	8dd-X\	.
4r	8g-X\	.
.	8dd-\	.
4c\	8gg-\	.
.	8ee-\J	.
!!LO:LB:g=original
=72	=72	=72
4d-X 4A- 4D-X\	8f\L	.
.	8dd-X\	.
4d-\	8ff\	.
.	8gg-X\	.
4f\	8aa-\	.
.	8bb-\J	.
=73	=73	=73
*	*8va	*
4.a-\	8ccc\L	.
.	8ddd-X\	.
.	8eee-\	.
8d-X\	8fff\	.
4d-\	8ggg-X\	.
.	8aaa-\J	.
*	*X8va	*
=74	=74	=74
8A-L 8D-X\	8f-X\L	.
8A-\	8a-\	.
8A-\	8ff-X\	.
8A-\	8a-\	.
8A-\	8f-\	.
8A-\J	8a-\J	.
=75	=75	=75
4A-\	8ff-X\L	.
.	8a-\	.
4r	8fny\	.
.	8a-\	.
4B-\	8ff-\	.
.	8a-\J	.
=76	=76	=76
4c 4E-\	8e-\L	.
.	8a-\	.
4E-\	8b-\	.
.	8bn\	.
4E-\	8cc\	.
.	8ee-\J	.
=77	=77	=77
4E-\	8ccc\L	.
.	8gg\	.
4r	8aa-\	.
.	8ee-\	.
4F\	8cc\	.
.	8a-\J	.
=78	=78	=78
4E- 4EE-\	8g\L	.
.	8a-\	.
*clefG2	*	*
4g 4e- 4d-X 4B-/	8b-\	.
.	8cc\	.
4g 4e- 4d- 4B-/	8dd-X\	.
.	8ddn\J	.
!!LO:LB:g=original
=79	=79	=79
*clefG2	*	*
2.g 2.e- 2.d-X 2.B-/	8ee-\L	.
.	8eee-\	.
.	8ee-\	.
.	8ff\	.
.	8ee-\	.
.	8eee-\J	.
*clefF4	*	*
=80	=80	=80
4C 4CC/	8a-\L	.
.	8cc\	.
4a- 4e- 4c 4A-\	8dd-X\	.
.	8ddn\	.
4a- 4e- 4c 4A-\	8ff\	.
.	8ee-\J	.
=81	=81	=81
*2\right	*	*
2.a- 2.e- 2.c 2.A-\	8gg\L	.
.	8aa-\	.
.	8ff\	.
.	8eee-\	.
.	8ee-\	.
.	8eee-\J	.
=82||	=82||	=82||
!LO:TX:a:i:t=prima volta	!	!
*>B1	*>B1	*>B1
8r	4cc 4a-\	p
8g\L	.	.
8a-\	4cc 4a-\	.
8g\	.	.
8f\	4cc 4a-\	.
8f-X\J	.	.
=83	=83	=83
8e-\L	4cc 4a-\	.
8c\	.	.
8A-\	4r	.
8G\	.	.
8F\	4dd 4a-\	.
8F-X\J	.	.
=84	=84	=84
8E-\L	4ee- 4g\	.
8G\	.	.
8A-\	4ee- 4g\	.
8An\	.	.
8B-\	4gg 4ee- 4g\	.
8c\J	.	.
=85	=85	=85
8d\L	4bb-: 4ee-: 4g:\	.
8e-\	.	.
8f\	8r	.
8g\	8ee-\	.
8an\	4ee-\	.
8c\J	.	.
!!LO:LB:g=original
=86	=86	=86
*clefG2	*	*
8r	4dd-X 4b-\	.
8an/L	.	.
!	!LO:TX:b:t=cresc_:problem:dynamics with extention lines	!LO:HP:t=cresc_
8b-/	4dd- 4b-\	<
8g-X/	.	.
8f/	4dd- 4b-\	.
8d-X/J	.	.
=87	=87	=87
8B-/L	4dd-X 4b-\	.
8An/	.	.
8B-/	4r	.
!LO:SIC:v:s=8d-	!	!
8d/	.	.
8g-X/	4ee- 4b-\	.
8G-X/J	.	.
*clefF4	*	*
=88	=88	=88
8F\L	4ff 4an\	.
8An\	.	.
8F\	4ff 4a\	.
8D-X\	.	.
8C\	4aan 4ff 4a\	[
8AAn\J	.	.
=89	=89	=89
8FF\L	4ccc: 4ff: 4an:\	.
8C\	.	.
8F\	8r	.
8An\	8ff 8a\	.
8c\	4ff 4a\	.
8f\J	.	.
=90	=90	=90
4B- 4F 4D-X 4BB-\	8r	.
*	*8va	*
.	8aaan\L	f
*clefG2	*	*
!	!LO:TX:b:i:t=con brio	!
4dd-X 4b- 4f 4d-X\	8bbb-\	.
.	8ggg-X\	.
4dd- 4b- 4f 4d-\	8fff\	.
.	8ddd-X\J	.
*	*X8va	*
=91	=91	=91
4.dd-X 4.b- 4.f 4.d-X\	8bb-\L	.
.	8aan\	.
.	8bb-\	.
*clefF4	*	*
8en 8d-X 8B- 8En\	8ddd-X\	.
4e 4d- 4B- 4E\	8ggg-X\	.
.	8gg-X\J	.
=92	=92	=92
4f 4c 4An 4F\	8fffL 8ff\	.
.	8aan\	.
*clefG2	*	*
8r	8ff\J	.
8dd-X\L	4r	.
8cc\	.	.
!LO:TX:t=P:problem:klucz po kresce taktowej	!	!
8an\J	8r	.
!!LO:LB:g=original
*clefF4	*	*
=93	=93	=93
4r	8ffL 8f\	.
.	8an\	.
8r	8f\J	.
8d-X\L	8r	.
8c\	4r	.
8An\J	.	.
=94	=94	=94
4BB- 4FF 4DD-X 4BBB-\	8r	.
.	8aan\L	.
4d-X 4B- 4F 4D-X\	8bb-\	.
.	8gg-X\	.
4d- 4B- 4F 4D-\	8ff\	.
.	8dd-X\J	.
=95	=95	=95
4.d-X 4.B- 4.F 4.D-X\	8b-\L	.
.	8an\	.
.	8b-\	.
8En 8D- 8BB- 8EEn\	8dd-X\	.
4E 4D- 4BB- 4EE\	8gg-X\	.
.	8g-X\J	.
=96	=96	=96
4F 4C 4AAn 4FF\	8ffL 8f\	.
.	8an\	.
8r	8f\J	.
8d-X\L	8r	.
8c\	4r	.
8An\J	.	.
=97	=97	=97
4ryy	8f<L 8F</	.
.	8An</	.
8ryy	8F</J	.
8D-X\L	8rG<	.
8C\	4rG<	.
8AAn\J	.	.
=98	=98	=98
4D-X 4DD-X\	4b- 4f 4B-\	p
4F 4D-\	4rd	.
4F 4D-\	12b-\L	.
.	12cc\	.
.	12b-\J	.
=99	=99	=99
4F 4E-\	4an 4f 4An\	.
4F 4E-\	4r	.
4F 4D-X\	4b- 4f 4B-\	.
!!LO:PB:g=original
=100	=100	=100
*	*2\left	*
4FF 4FFF/	[2.dd-X 2.f 2.d-X\	.
4B- 4F\	.	.
4B- 4F\	.	.
=101	=101	=101
*	*^	*
*2\left	*	*2\right	*
2.An 2.F\	4dd-/]	2.e-\	.
.	4cc/	.	.
.	4f/	.	.
*	*v	*v	*
=102	=102	=102
4d-X 4F\	4f\	.
4d- 4B-\	8ff\L	.
.	8gg-X\J	.
[4d- [>4B-\	4ff\	.
=103	=103	=103
4d-] 4B-\]	8eenL 8g\	.
.	8ff\J	.
4c 4B-\	4ee\	.
4c 4An\	8ffL 8cc\	.
.	8ee-X\J	.
=104	=104	=104
4F\	8ee-L 8b-\	.
.	8dd-X\	.
!LO:SIC:v:n=1:s=4d-	!LO:SIC:v:s=8aan	!
4d 4B-\	8aa-\	.
.	8bb-\	.
4F\	8b-\	.
.	8dd-\J	.
=105	=105	=105
*	*^	*
*	*	*2\left	*
4An 4F\	2.cctt/	2.f\	.
4e-\	.	.	.
4FF/	.	.	.
*	*v	*v	*
=106	=106	=106
4FFF\	4b- 4d-X/	p
4ryy	4b- 4f 4d-\	.
12B-/L	4b- 4f 4d-\	.
12c/	.	.
12B-/J	.	.
=107	=107	=107
4An/	4cc 4f 4e-\	.
4rB	4cc 4f 4e-\	.
4B-/	4b- 4f 4d-X\	.
!!LO:LB:g=original
=108	=108	=108
*^	*	*
[2.d-X 2.F/	4FF\	4ryy	.
.	2ryy	4b- 4f 4d-X\	.
.	.	4b- 4f 4d-\	.
*v	*v	*	*
=109	=109	=109
4d-/]	2.an 2.f 2.e-\	.
4c/	.	.
4F/	.	.
=110	=110	=110
4F/	4d-X\	.
8f/L	4b- 4d-\	.
8g-X/J	.	.
4f/	[4b- [4d-\	.
=111	=111	=111
8enL 8G/	4b-] 4d-\]	.
8f/J	.	.
4e/	4b- 4c\	.
8fL 8c/	4an 4c\	.
8e-X/J	.	.
=112	=112	=112
4FF\	8e-L 8B-/	.
.	8d-X/	.
4F 4D-X\	8an/	.
.	8b-/J	.
4EEn\	8B-/L	.
.	8d-/J	.
=113	=113	=113
*	*^	*
4AAn 4FF\	2.ctt/	2.F\	.
4E-\	.	.	.
4FFF/	.	.	.
*	*v	*v	*
=114	=114	=114
*2\right	*	*
2.BB- 2.FF 2.BBB-\	8B-<L 8D-X</	ff
.	8B-</	.
.	8c</	.
.	8B-</	.
.	8d-X</	.
.	8B-</J	.
!!LO:LB:g=original
=115	=115	=115
8AAn\L	4.f< 4.c< 4.E-</	.
8FF\	.	.
8GG-X\	.	.
8FF\	8F</	.
8AA\	4f</	.
8FF\J	.	.
=116	=116	=116
4BB- 4GG-X\	8B-\L	.
.	8b-\	.
4B- 4G-X\	8cc\	.
.	8b-\	.
4B- 4G-\	8dd-X\	.
.	8b-\J	.
=117	=117	=117
8An\L	4.ff 4.cc 4.e-\	.
8F\	.	.
8G-X\	.	.
8F\	8f\	.
8A\	4ff\	.
8F\J	.	.
=118	=118	=118
4BB-\	8d-X\L	.
.	8dd-X\	.
*clefG2	*	*
4f 4d-X 4B-/	8ee-\	.
.	8een\	.
4an 4f 4e- 4B-/	8gg-X\	.
.	8ff\J	.
=119	=119	=119
4b- 4f 4d-X 4B-/	8bb-\L	.
.	8an\	.
4r	8b-\	.
.	8bn\	.
4r	8cc\	.
.	8b-X\J	.
*clefF4	*	*
=120	=120	=120
4F 4D-X 4BB-\	8dd-X\L	.
.	8d-X\	.
4F 4D- 4BB-\	8e-\	.
.	8en\	.
4An 4F 4E- 4BB-\	8g-X\	.
.	8f\J	.
=121	=121	=121
!	!LO:TX:t=P:problem:mixed beam	!
4B- 4F 4D-X 4BB-\	8b-\L	.
.	8An\	.
4r	8B-\	.
.	8d-X\	.
4rGG	8En</	.
.	8F</J	.
!!LO:LB:g=original
=122:|!	=122:|!	=122:|!
!LO:TX:a:i:t=secunda volta	!	!
*>B2	*>B2	*>B2
8r	4cc 4a-\	p
8g\L	.	.
8a-\	4cc 4a-\	.
8g\	.	.
8f\	4cc 4a-\	.
8f-X\J	.	.
=123	=123	=123
8e-\L	4cc 4a-\	.
8c\	.	.
8A-\	4r	.
8G\	.	.
8F\	4dd 4a-\	.
8F-X\J	.	.
=124	=124	=124
8E-\L	4ee- 4g\	.
8G\	.	.
8A-\	4ee- 4g\	.
8An\	.	.
8B-\	4gg 4ee- 4g\	.
8c\J	.	.
=125	=125	=125
8d\L	4bb-: 4ee-: 4g:\	.
8e-\	.	.
8f\	8r	.
8g\	8ee-\	.
8e-\	4ee-\	.
8G\J	.	.
*clefG2	*	*
=126	=126	=126
8r	4ee- 4cc\	.
8bn\L	.	.
!	!	!LO:HP:t=cresc
8cc\	4ee- 4cc\	<
8a-\	.	.
8g\	4ee- 4cc\	.
8e-\J	.	.
=127	=127	=127
8c/L	4ee- 4cc\	.
8Bn/	.	.
8c/	4r	.
8e-/	.	.
8a-/	4ff 4cc\	.
8A-/J	.	.
*clefF4	*	*
=128	=128	=128
8G\L	4gg 4bn\	.
8Bn\	.	.
8G\	4gg 4b\	.
8E-\	.	.
8D\	4bbn 4gg 4b\	.
8BBn\J	.	.
=129	=129	=129
8GG\L	4ddd: 4gg: 4bn:\	.
8D\	.	.
8G\	8r	.
8Bn\	8gg 8b\	.
8d\	4gg 4b\	.
8g\J	.	.
!!LO:LB:g=original
=130	=130	=130
4c 4G 4E- 4C\	8r	.
*	*8va	*
.	8bbbn\L	ff
*clefG2	*	*
4ee- 4cc 4g 4e-\	8cccc\	.
.	8aaa-\	.
4ee- 4cc 4g 4e-\	8ggg\	.
.	8eee-\J	.
=131	=131	=131
4.ee- 4.cc 4.g 4.e-\	8ccc\L	.
.	8bbn\	.
.	8ccc\	.
8f#X 8e- 8c 8F#X/	8eee-\	.
4f# 4e- 4c 4F#/	8aaa-\	.
.	8aa-\J	.
*	*X8va	*
=132	=132	=132
4g 4d 4Bn 4G/	8gggL 8gg\	.
.	8bbn\	.
8r	8gg\J	.
8ee-\L	8r	.
8dd\	4r	.
8bn\J	.	.
=133	=133	=133
*clefF4	*	*
8r	8ggL 8g\	.
4r	8bn\	.
.	8g\J	.
8e-\L	8r	.
8d\	4r	.
8Bn\J	.	.
=134	=134	=134
4C 4GG 4EE- 4CC/	8r	.
.	8bbn\L	.
4e- 4c 4G 4E-\	8ccc\	.
.	8aa-\	.
4e- 4c 4G 4E-\	8gg\	.
.	8ee-\J	.
=135	=135	=135
4.e- 4.c 4.G 4.E-\	8cc\L	.
.	8bn\	.
.	8cc\	.
8F#X 8E- 8C 8FF#X/	8ee-\	.
4F# 4E- 4C 4FF#/	8aa-\	.
.	8a-\J	.
=136	=136	=136
4G 4D 4BBn 4GG/	8ggL 8g\	.
.	8bn\	.
8r	8g\J	.
8e-\L	8re	.
8d\	4rd	.
8Bn\J	.	.
!!LO:LB:g=original
=137	=137	=137
8r	8gL 8G\	.
4r	8Bn\	.
.	8G\J	.
8E-\L	8rc	.
8D\	4rc	.
8BBn\J	.	.
=138	=138	=138
4EE-\	4cc 4g 4c\	.
!	!	!LO:DY:t=mf.
4G 4E-\	4r	mf
4G 4E-\	12cc\L	.
.	12dd\	.
.	12cc\J	.
=139	=139	=139
4G 4F\	4bn 4g 4Bn\	.
4G 4F\	4r	.
4G 4E-\	4cc 4g 4c\	.
=140	=140	=140
4GG 4GGG/	[2.ee- 2.g 2.e-\	.
4c 4G\	.	.
4c 4G\	.	.
=141	=141	=141
*	*^	*
2.Bn 2.G\	4ee-/]	2.f\	.
.	4dd/	.	.
.	4g/	.	.
*	*v	*v	*
=142	=142	=142
4e- 4G\	4g\	.
4e- 4c\	8gg\L	.
.	8aa-\J	.
[4e- [4c\	4gg\	.
=143	=143	=143
4e-] 4c\]	8ff#XL 8an\	.
.	8gg\J	.
4d 4c\	4ff#\	.
4d 4Bn\	8ggL 8dd\	.
.	8ffn\J	.
!!LO:LB:g=original
=144	=144	=144
4G\	8ffL 8cc\	.
.	8ee-\	.
4e- 4c\	8bbn\	.
.	8ccc\	.
4F#X\	8cc\	.
.	8ee-\J	.
=145	=145	=145
*	*^	*
4Bn 4G\	2.ddtt/	2.g\	.
4f\	.	.	.
4GG\	.	.	.
*	*v	*v	*
=146	=146	=146
4GGG\	4cc 4e-\	p
4r	4cc 4g 4e-/	.
12c/L	4cc 4g 4e-/	.
12d/	.	.
12c/J	.	.
=147	=147	=147
4Bn/	4dd 4g 4f/	.
4rc	4dd 4g 4f/	.
4c/	4cc 4g 4e-/	.
=148	=148	=148
*^	*	*
[2.e- [>2.G/	4GG\	4ryy	.
.	2ryy	4cc 4an 4f#X/	.
.	.	4cc 4a 4f#/	.
*v	*v	*	*
=149	=149	=149
4e-] 4G/]	2.bn 2.g 2.fn/	.
4d/	.	.
4G/	.	.
=150	=150	=150
4G/	4e-/	.
8g/L	4cc 4e-/	.
8a-/J	.	.
4g/	[4cc [4e-/	.
=151	=151	=151
8f#X/L	4cc] 4e-/]	.
8g/J	.	.
4f#/	4cc 4d/	.
8gL 8d/	4bn 4d/	.
8fn/J	.	.
!!LO:PB:g=original
=152	=152	=152
4GG\	8fL 8c\	.
.	8e-\	.
4G 4E-\	8bn\	.
.	8cc\	.
4FF#X\	8c\	.
.	8e-\J	.
=153	=153	=153
*	*^	*
*	*	*2\right	*
4BBn 4GG\	2.dtt/	2.G\	.
4F\	.	.	.
4GGG\	.	.	.
*	*v	*v	*
=154	=154	=154
*>C	*>C	*>C
!	!LO:TX:t=P:problem:znaczek kółko-krzyżykk nad kreską taktową	!
2.C 2.GG 2.CC\	8c<L 8E-</	ff
.	8c</	.
.	8d</	.
.	8c</	.
.	8e-</	.
.	8c</J	.
=155	=155	=155
8BBn\L	4.g< 4.d< 4.F</	.
8GG\	.	.
8AA-\	.	.
8GG\	8G</	.
8BB\	4g</	.
8GG\J	.	.
=156	=156	=156
4C 4AA-\	8c\L	.
.	8cc\	.
4c 4A-\	8dd\	.
.	8cc\	.
4c 4A-\	8ee-\	.
.	8cc\J	.
=157	=157	=157
8Bn\L	4.gg 4.dd 4.f\	.
8G\	.	.
8A-\	.	.
8G\	8g\	.
8B\	4gg\	.
8G\J	.	.
=158	=158	=158
4C\	8e-\L	.
.	8ee-\	.
*clefG2	*	*
4g 4e- 4c/	8ff\	.
.	8ff#X\	.
4bn 4g 4f 4c/	8aa-\	.
.	8gg\J	.
!!LO:LB:g=original
=159	=159	=159
*clefG2	*	*
4cc 4g 4e- 4c\	8ccc\L	.
.	8bn\	.
4r	8cc\	.
.	8cc#X\	.
4r	8dd\	.
.	8ccn\J	.
*clefF4	*	*
=160	=160	=160
4G 4E- 4C\	8ee-\L	.
.	8e-\	.
4G 4E- 4C\	8f\	.
.	8f#X\	.
4Bn 4G 4F 4C\	8a-\	.
.	8g\J	.
=161	=161	=161
4c 4G 4E- 4C\	8cc\L	.
.	8Bn\	.
4r	8c\	.
.	8c#X\	.
4r	8d\	.
.	8cn\J	.
=162||	=162||	=162||
*>D	*>D	*>D
*k[]	*k[]	*
4C 4CC\	[2.e< [2.c< [2.G< [2.E</	p
!	!LO:TX:b:i:t=con dignita	!
4EE\	.	.
4GG\	.	.
=163	=163	=163
4C\	4e<] 4c<] 4G<] 4E</]	.
4G\	4d< 4B< 4G</	.
4C\	4e< 4c< 4G</	.
=164	=164	=164
*	*^	*
*2\left	*	*2\left	*
2FF\	4g/	2c 2A\	.
.	4f/	.	.
4C\	4e 4c/	4G\	.
=165	=165	=165	=165
*	*	*2\right	*
4C#X\	2.d/	2.A 2.F#X\	.
4D\	.	.	.
4Cn\	.	.	.
!!LO:LB:g=original
=166	=166	=166	=166
*2\right	*	*	*
2.BB\	4g/	2.d 2.G\	.
.	4f#X/	.	.
.	4g/	.	.
=167	=167	=167	=167
*	*	*2\left	*
2AA\	4a/	2e 2c\	.
.	4cc/	.	.
4BB\	[4b/	[>4g#X 4d\	.
=168	=168	=168	=168
2C\	4b] 4g#/]	2e\	.
.	4a/	.	.
4C#X\	4gn 4e/	4A\	.
=169	=169	=169	=169
*	*	*2\right	*
2D\	4f#X/	2.c\	.
.	8e#X/L	.	.
.	8f#/J	.	.
4DD/	4dd/	.	.
=170	=170	=170	=170
*	*	*2\left	*
2GG/	4dd/	2.g 2.B\	.
.	4b/	.	.
4D/	4g/	.	.
=171	=171	=171	=171
*	*	*2\right	*
2E-X/	4a/	2.f#X 2.c\	.
.	8b/L	.	.
.	8cc/	.	.
4D/	8b/	.	.
.	8a/J	.	.
=172	=172	=172	=172
2GG/	4dd/	2.g 2.B\	.
.	4b/	.	.
4D/	4g/	.	.
!!LO:LB:g=original
=173	=173	=173	=173
2E-X/	8g#X/L	2.f#X 2.c\	.
.	8a/	.	.
.	8b/	.	.
.	8cc/	.	.
4D/	8b/	.	.
.	8a/J	.	.
=174	=174	=174	=174
2GG/	4b/	2g 2B\	.
.	4dd/	.	.
4B\	[4dd#X/	[>4g [4f\	.
=175	=175	=175	=175
4C\	4dd#/]	4g] 4f\]	.
4c\	4ee'/	4g 4e\	.
4C#X\	4r	4ryy	.
=176	=176	=176	=176
*^	*	*	*
*	*2\left	*	*	*
4F#X/	[<2.D\	4r	4ryy	.
4B/	.	4f#X/	4f# 4c\	.
4A/	.	4dd/	4dd 4f# 4c\	.
=177	=177	=177	=177	=177
!LO:TX:a:t=I	!	!	!	!
*>D1	*>D1	*>D1	*>D1	*>D1
!	!	!	!LO:TX:a:t=P:problem:volty dopisane ołówkiem	!
4G/	4D\]	4g/	4g 4B\	.
2ryy	4D\	4r	4ryy	.
.	4D#X\	4r	4ryy	.
=178:|!	=178:|!	=178:|!	=178:|!	=178:|!
!LO:TX:t=II	!	!	!	!
*>D2	*>D2	*>D2	*>D2	*>D2
!	!	!	!LO:TX:a:t=P:problem:volty dopisane ołówkiem	!
4G/	4D\]	4g/	4g 4B\	.
2ryy	4D\	4r	4ryy	.
.	4GG\	4r	4ryy	.
*v	*v	*	*	*
=179	=179	=179	=179
*>E	*>E	*>E	*>E
8qGGG/	.	.	.
*2\right	*	*	*
[2.G [2.D [2.GG\	4g/	2.B-X\	.
!	!LO:TX:b:i:t=espressivo	!	!
.	4c#X/	.	.
.	4d/	.	.
!!LO:LB:g=original
=180	=180	=180	=180
*^	*	*	*
*	*2\left	*	*2\left	*
4G/]	2D] 2GG\]	[2.b-X/	[2.d [2.B-X\	.
4A/	.	.	.	.
4G/	4ryy	.	.	.
*v	*v	*	*	*
=181	=181	=181	=181
2.E 2.EE\	4b-/]	4d] 4B-\]	.
.	4a/	2c#X 2A\	.
.	4g/	.	.
=182	=182	=182	=182
2D 2DD\	8f/L	2d 2A\	.
.	8e/	.	.
.	8f/	.	.
.	8a/	.	.
4FF\	8c#X/	4A\	.
.	8d/J	.	.
=183	=183	=183	=183
*2\right	*	*2\right	*
2GG\	8e/L	2d 2B-X\	.
.	8e/	.	.
.	8f/	.	.
.	8e/J	.	.
4EE\	[4g/	[>4d [4B-\	.
=184	=184	=184	=184
2AA/	4g/]	4d] 4B-\]	.
.	4f/	4c#X 4A\	.
4AAA/	4e/	4c# [4G\	.
*	*v	*v	*
=185	=185	=185
4DD/	8eL 8G/]	.
.	8c#X/	.
4A 4F\	8d/	.
.	8f/	.
4d 4A 4F\	8a/	.
.	8cc#X/J	.
=186	=186	=186
2.d 2.A 2.F\	8dd\L	.
.	8ddd\	.
.	8aa\	.
.	8ff\	.
.	8dd\	.
.	8b\J	.
!!LO:LB:g=original
=187	=187	=187
*	*^	*
*2\left	*	*	*
[2.A [<2.E [2.AA\	4a/	2.c\	.
!	!LO:TX:b:t=poco cresc:ext=ut:problem:dynamics with extention lines	!	!LO:HP:t=poco cresc
.	4d#X/	.	<
.	4e/	.	.
=188	=188	=188	=188
*^	*	*	*
4A/]	2.E] 2.AA\]	[2.cc/	[2.e [2.c\	.
4B/	.	.	.	.
4A/	.	.	.	.
*v	*v	*	*	*
=189	=189	=189	=189
2.F#X 2.FF#X\	4cc/]	4e] 4c\]	.
*	*	*2\left	*
.	4b/	2d#X 2B\	[
.	4a/	.	.
=190	=190	=190	=190
2E 2EE\	8g/L	2e 2B\	.
.	8f#X/	.	.
.	8g/	.	.
.	8b/J	.	.
4GG\	8d#X/L	4B\	.
.	8e/J	.	.
=191	=191	=191	=191
2AA/	8f#X/L	2e 2c\	.
.	8f#/	.	.
.	8g/	.	.
.	8f#/J	.	.
4FF#X/	[4a/	[4e [4c\	.
=192	=192	=192	=192
2BB/	4a/]	4e] 4c\]	.
.	4g/	4d#X 4B\	.
4BBB/	4f#X/	4d# [4A\	.
*	*v	*v	*
=193	=193	=193
4EE/	8f#XL 8A/]	.
.	8d#X/	.
4B 4G\	8e/	.
.	8g/	.
4e 4B 4G\	8b/	.
.	8dd#X/J	.
!!LO:LB:g=original
=194	=194	=194
*2\right	*	*
2.e 2.B 2.G\	8ee\L	.
.	8eee\	.
.	8bb\	.
.	8gg\	.
.	8ee\	.
.	8cc#X\J	.
=195	=195	=195
*	*^	*
4F#X 4BB\	2.bTT/	4d#X\	.
4c##X 4E#X\	.	2ryy	pp
4d#X 4F#\	.	.	.
*	*v	*v	*
=196	=196	=196
4d#X 4F#X\	2.btt/	.
*clefG2	*	*
4e#X 4c##X/	.	.
4f#X 4d#X/	.	.
=197	=197	=197
2.g 2.e/	8b\L	.
.	8a#X\	.
.	8b\	.
.	8ee\	.
.	8gg\	.
.	8bb\J	.
=198	=198	=198
*	*8va	*
2.g 2.e 2.c#X 2.A#X 2.F#X/	8aa#X\L	.
.	8ccc#X\	.
.	8eee\	.
.	8ggg\	.
.	8aaa#X\	.
.	8cccc#X\J	.
*clefF4	*	*
=199	=199	=199
*	*^	*
4F#X 4BB\	2.bbbTT/	4ddd#X\	.
4c##X 4E#X\	.	2ryy	.
4d#X 4F#\	.	.	.
*	*v	*v	*
=200	=200	=200
4d#X 4F#X\	2.bbbtt/	.
*clefG2	*	*
4e#X 4c##X/	.	.
4f#X 4d#X/	.	.
!!LO:PB:g=original
=201	=201	=201
2.g 2.e/	8bbb\L	.
.	8eeee\	.
.	8cccc#X\	.
.	8bbb\	.
.	8ggg\	.
.	8eee\J	.
*	*X8va	*
=202	=202	=202
!	!LO:TX:a:i:t=loco	!
2.g 2.e 2.c#X 2.A#X 2.F#X/	8ccc#X\L	.
.	8aa#X\	.
.	8gg\	.
.	8ee\	.
.	8cc#X\	.
.	8a#X\J	.
*clefF4	*	*
=203	=203	=203
*	*^	*
4F#X 4BB\	2.bTT/	4d#X\	.
4d#X 4F#\	.	2ryy	.
4d# 4F#\	.	.	.
.	.	8qa#X/	.
*	*v	*v	*
=204	=204	=204
*2\left	*	*
2.d 2.G#X 2.E\	8b\L	<
.	8dd\	.
.	8ff\	.
.	8gg#X\	.
.	8ccc\	.
.	8bb\J	.
=205	=205	=205
*	*^	*
4E 4AA\	2.aaTT/	4cc#X\	.
4c#X 4E\	.	2ryy	.
4c# 4E\	.	.	.
.	.	8qgg#X/	.
*	*v	*v	*
=206	=206	=206
*2\right	*	*
2.cn 2.F#X 2.D\	8aa\L	.
.	8ccc\	.
.	8eee-X\	[
.	8fff#X\	.
*	*8va	*
.	8bbb\	.
.	8aaa\J	.
=207	=207	=207
!	!	!LO:DY:t=f.
8DL 8GG\	8bb\L	f
8F\	8ggg\	.
8G\	8aaa\	.
8B\	8ggg\	.
8d\	8fff\	.
!	!LO:TX:a:i:t=loco	!
8f\J	8ddd\J	.
*	*X8va	*
!!LO:LB:g=original
=208	=208	=208
4g\	8bb\L	.
.	8ccc\	.
4r	8ccc#X\	.
.	8ddd\J	.
4f 4c 4A-X\	4ff 4ccM\	.
*clefG2	*	*
=209	=209	=209
8dL 8G/	8b\L	.
!	!	!LO:HP:t=poco dim.
8f/	8gg\	>
8g/	8aa\	.
8b/	8gg\	.
8dd/	8ff\	.
8b/J	8dd\J	.
=210	=210	=210
4g/	8b\L	.
.	8cc\	.
4r	8cc#X\	.
.	8dd\J	.
*clefF4	*	*
4D 4GG\	4f 4Bm\	.
=211	=211	=211
4C 4CC\	[2.e< [2.c< [2.G< [2.E</	mf
4EE\	.	.
4GG\	.	.
=212	=212	=212
4C\	4e<] 4c<] 4G<] 4E</]	.
4G\	4d< 4B< 4G</	.
4C\	4e< 4c< 4G</	.
=213	=213	=213
*	*^	*
2FF\	4g/	2c 2A\	.
.	4f/	.	.
4C\	4e/	4c 4G\	.
*	*v	*v	*
=214	=214	=214
4C#X\	2.d 2.A 2.F#X/	.
4D\	.	.
4Cn\	.	.
!!LO:LB:g=original
=215	=215	=215
*	*^	*
2.BB\	4g/	2.d 2.G\	<
.	4f#X/	.	.
.	4g/	.	.
=216	=216	=216	=216
2AA\	4a/	2e 2c\	.
.	4cc/	.	.
4BB\	[4b/	([4g#X 4d\	[
=217	=217	=217	=217
2C\	4b/]	4g#] [4e\)	>
.	4a 4e/	4e]	.
4C#X\	4gn/	4e 4A\	]
=218	=218	=218	=218
2D\	4f#X/	2.c\	.
.	8e#X/L	.	.
.	8f#/J	.	.
4DD\	4dd/	.	.
=219	=219	=219	=219
2GG\	4dd/	2.g 2.B\	>
.	4b/	.	.
4D\	4g/	.	]
=220	=220	=220	=220
*2\left	*	*	*
2E-X\	4a/	2.f#X 2.c\	.
.	8b/L	.	.
.	8cc/	.	.
4D\	8b/	.	.
.	8a/J	.	.
=221	=221	=221	=221
2G 2GG\	4dd/	2g 2B\	<
.	4b/	.	.
4A\	4cc/	4g\	[
!!LO:LB:g=original
=222	=222	=222	=222
*2\right	*	*	*
2B\	4dd/	2.g\	.
.	8ee/L	.	.
.	8ff/	.	.
4G\	8ee/	.	.
.	8dd/J	.	.
=223	=223	=223	=223
2C\	4cc/	2g 2e\	p
.	4ee/	.	.
4D\	4dd/	4b 4f\	.
=224	=224	=224	=224
*2\left	*	*	*
2E\	4cc/	4a 4e\	.
.	4b/	4g#X 4d\	.
4F\	4a/	4a 4c\	.
=225	=225	=225	=225
2.G\	4g/	4e 4c\	.
.	8b/L	4r	.
.	8cc/	.	.
.	8dd/	4r	.
.	8cc/J	.	.
=226	=226	=226	=226
2.B 2.F 2.GG\	4gg/	4dd 4g\	.
.	8ff#X/L	4r	.
.	8gg/	.	.
.	8aa/	4r	.
.	8gg/J	.	.
*	*v	*v	*
=227	=227	=227
*^	*	*
!	!	!	!LO:DY:t=pp.
4c/	2G 2E\	4ccc 4cc\	pp
4e/	.	4eee 4ee\	.
4d/	4G#X 4E\	4ddd 4dd\	.
=228	=228	=228	=228
4c 4A/	2.F\	4ccc 4cc\	.
4B/	.	4bb 4b\	.
4A/	.	4aa 4a\	.
*v	*v	*	*
!!LO:LB:g=original
=229	=229	=229
*2\right	*	*
2.e 2.c 2.G\	4gg 4g\	.
.	8bb\L	.
.	8ccc\	.
.	8ddd\	.
.	8ccc\J	.
=230	=230	=230
2.f 2.B 2.G 2.D\	4ggg 4gg\	.
*	*8va	*
.	8fff#X\L	.
.	8ggg\	.
.	8aaa\	.
.	8ggg\J	.
=231	=231	=231
4e 4G 4C\	2.ccccTT\	pp
*clefG2	*	*
4dd#X 4f#X\	.	.
4ee 4g\	.	.
=232	=232	=232
4ee 4g\	2.ccccTT\	.
4ff#X 4dd#X\	.	.
4gg 4ee\	.	.
=233	=233	=233
2.aa-X 2.ff\	8cccc\L	.
.	8ffff\	.
.	8dddd\	.
.	8cccc\	.
.	8aaa-X\	.
.	8fff\J	.
*	*X8va	*
=234	=234	=234
!	!LO:TX:a:i:t=loco	!
2.b 2.a-X 2.f 2.c/	8ddd\L	.
.	8bb\	.
.	8aa-X\	.
.	8ff\	.
.	8dd\	.
.	8b\J	.
*clefF4	*	*
=235	=235	=235
!LO:TX:a:t=prima volta	!	!
*>E1	*>E1	*>E1
*	*^	*
4G 4C\	2.ccTT/	4e\	.
4d#X 4F#X\	.	2ryy	.
4e 4G\	.	.	.
*	*v	*v	*
=236	=236	=236
4e 4G\	2.ccTT/	.
*clefG2	*	*
4f#X 4d#X/	.	.
4g 4e/	.	.
!!LO:LB:g=original
=237	=237	=237
2.a-X 2.f/	8cc\L	.
.	8ff\	.
.	8dd\	.
.	8cc\	.
.	8a-X\	.
.	8f\J	.
*clefF4	*	*
=238	=238	=238
2.A-X 2.F 2.C\	8d</L	.
.	8B</	.
.	8A-X</	.
.	8F</	.
.	8D</	.
.	8BB</J	.
=239	=239	=239
8GGL 8CC\	4.c< 4.E</	.
8C\	.	.
8AA\	.	.
!	!LO:TX:b:i:t=poco sostenuto.	!
8GG\	8B</	.
8EE\	[4c< 4E</	.
8CC\J	.	.
=240	=240	=240
8AAA\L	4c<] 4F#X</	.
8DD\	.	.
8EE-X\	4g< 4c< 4G</	.
8DD\	.	.
8GG#X\	4a 4c 4A\	.
8DD\J	.	.
=241:|!	=241:|!	=241:|!
*>E2	*>E2	*>E2
*clefG2	*	*
8eL 8c/	4.cc\	p
8cc/	.	.
8a/	.	.
8g/	8b\	.
8e/	4cc\	.
8c/J	.	.
=242	=242	=242
*	*^	*
2.d 2.Att/	4dd/	2.cc 2.f#X\	.
.	4ee-X/	.	.
.	4dd/	.	.
*clefF4	*	*	*
=243	=243	=243	=243
8dL 8G\	4.gg/	2.dd 2.b-X\	.
8g\	.	.	.
8e-X\	.	.	.
8d\	8ff#X/	.	.
8B-X\	4gg/	.	.
8G\J	.	.	.
!!LO:LB:g=original
=244	=244	=244	=244
*2\left	*	*	*
!LO:TX:a:t=P:problem:tryl z bemolem	!	!	!
2.A 2.Ett\	4aa/	2.gg 2.cc#X\	.
.	4bb-X/	.	.
.	4aa/	.	.
*	*v	*v	*
=245	=245	=245
4f 4A 4D\	2.dddTT\	.
*clefG2	*	*
!	!LO:TX:b:t=cresc_:problem:dynamics with extention lines	!LO:HP:t=cresc_
4ee 4g#X\	.	<
4ff 4a\	.	.
=246	=246	=246
4ff 4a\	2.dddTT\	.
4gg#X 4ee\	.	.
4aa 4ff\	.	.
=247	=247	=247
*	*8va	*
2.bb-X 2.gg\	8ddd\L	.
.	8ggg\	.
.	8eee\	[
.	8ddd\	.
.	8bb-X\	.
.	8gg\J	.
*	*X8va	*
=248	=248	=248
2.g 2.e 2.c#X 2.A/	8ee\L	.
.	8cc#X\	.
.	8b-X\	.
.	8g\	.
.	8e\	.
.	8c#X\J	.
*clefF4	*	*
=249	=249	=249
8FL 8D\	4.d/	.
8d\	.	.
8B-X\	.	.
8A\	8c#X/	.
8F\	4d/	.
8D\J	.	.
=250	=250	=250
*	*^	*
2.E 2.BBtt\	4e/	2.d 2.G#X\	.
.	4f/	.	.
.	4e/	.	.
=251	=251	=251	=251
8EL 8AA\	4.a/	2.e 2.c\	.
8A\	.	.	.
8F\	.	.	.
8E\	8g#X/	.	.
8C\	4a/	.	.
8AA\J	.	.	.
!!LO:PB:g=original
=252	=252	=252	=252
!LO:N:n=1:vis=2	!	!	!
2.D#X 2.DD#Xtt\	4b/	2.a\	.
.	4cc/	.	.
.	4b/	.	.
*	*v	*v	*
=253	=253	=253
!LO:N:n=2:vis=4	!	!LO:DY:t=f.
4.E 4.EE\	4ee 4g#X 4e\	f
.	4r	.
8D#X\	.	.
4E\	4r	.
=254	=254	=254
4F\	4.d\	.
4G\	.	.
.	8c#X\	.
4F\	4d\	.
=255	=255	=255
*	*^	*
4E\	4.cc/	4e\	.
4D\	.	4f\	.
.	8b/	.	.
[4C\	4cc/	4e\	.
=256	=256	=256	=256
8C\L]	4dd/	4f#X\	.
8D\	.	.	.
8C\	4ee-X/	4g\	.
8BB-X\	.	.	.
8AA\	4dd/	4f#\	.
8D\J	.	.	.
=257	=257	=257	=257
!LO:N:n=2:vis=4	!	!	!
4.G 4.GG\	4b-X/	4g\	.
.	4r	4ryy	.
8F#X\	.	.	.
4G\	4r	4ryy	.
*	*v	*v	*
=258	=258	=258
4A-X\	4.f\	.
4B-X\	.	.
.	8e\	.
4A-\	4f\	.
=259	=259	=259
*	*^	*
4G\	4.ee-X/	4g\	.
4F\	.	4a-X\	.
.	8dd/	.	.
[4E-X\	4ee-/	4g\	.
!!LO:LB:g=original
=260	=260	=260	=260
8E-X\L]	4ff/	4an\	.
8F\	.	.	.
8E-\	4gg/	4b-X\	.
8D\	.	.	.
8C\	4ff/	4a\	.
8F\J	.	.	.
*	*v	*v	*
=261	=261	=261
4.B-X 4.BB-X\	8dd\L	.
.	8b-X\	.
.	8d\	.
8A\	8b-\	.
!	!LO:TX:b:t=cresc_:problem:dynamics with extention lines	!LO:HP:t=cresc_
4B-\	8dd\	<
.	8b-\J	.
=262	=262	=262
4c\	8ee-X\L	.
.	8a\	.
4d\	8f\	.
.	8a\	.
4c\	8ee-\	.
.	8a\J	.
=263	=263	=263
4.d 4.B-X\	8ff\L	.
.	8b-X\	.
.	8f\	.
8c#X\	8b-\	.
4d\	8ff\	.
.	8b-\J	.
=264	=264	=264
4e-X 4G\	8gg\L	.
.	8b-X\	.
4f\	8g\	.
.	8b-\	[
4e-\	8gg\	.
.	8b-\J	.
=265	=265	=265
4.f 4.d 4.F\	8aa-X\L	f
.	8dd\	.
.	8a-X\	.
8e\	8dd\	.
4f\	8aa-\	.
.	8dd\J	.
=266	=266	=266
!LO:N:vis=1	!	!
2r	8aa-X\L	.
.	8ddd\	.
.	8aa-\	.
.	8ddd\	.
4r	8aaa-X\	.
.	8ddd\J	.
!!LO:LB:g=original
=267	=267	=267
4.FF/	8aa-X\L	.
.	8ddd\	.
.	8aa-\	.
8EE/	8dd\	.
4FF/	8aa-\	.
.	8dd\J	.
=268	=268	=268
2r	8a-X\L	.
.	8cc\	.
.	8a-\	.
.	8c\	.
4r	8a-\	.
.	8c\J	.
=269	=269	=269
8qGGG\	.	.
4F 4FF\	8Bn\L	.
.	8G\	<
4r	8B\	.
.	8g\J	.
!	!LO:TX:a:t=ms	!
8g>/L	4ryy	.
8bn>/J	.	.
=270	=270	=270
4ryy	8bn\L	.
.	8g\	.
4ryy	8b\	.
.	8gg\J	.
!	!LO:TX:b:t=ms	!
8gg>/L	4ryy	[[
8bbn>/J	.	.
=271	=271	=271
4ryy	8bbn\L	.
.	8ggg\	.
4ryy	8bb\	.
.	8gg\J	.
!	!LO:TX:b:t=ms	!
8gg>/L	4ryy	>
8bn>/J	.	.
=272	=272	=272
4ryy	8bn\L	.
.	8gg\	.
4ryy	8b\	.
.	8g\J	.
!LO:TX:a:i:t=Da capo \nil scherzo \nsenza repetizione \nal segno (znaczek kółko-krzyżyk)\npoi &colon;	!LO:TX:b:t=ms	!
8g>/L	4ryy	]
8Bn>/J	.	.
!!LO:LB:g=original
*clefF4	*	*
=273||	=273||	=273||
*>F	*>F	*>F
*k[b-e-a-]	*k[b-e-a-]	*
4E-: 4EE-: 4CC:\	8c/L	mf
.	8G/	.
4r	8A-M</	.
.	8G/	.
4r	8g/	.
.	8G/J	.
=274	=274	=274
4DD\	8F#X/L	.
.	8G/	.
4F 4GG\	8A-/	.
.	8An/	.
4DD\	8B-/	.
.	8Bn/J	.
=275	=275	=275
4EE-\	8c/L	.
.	8c/	.
.	8qe-\	.
4G 4C\	8d/	.
.	8c/	.
4EE-\	8cc/	.
.	8c/J	.
=276	=276	=276
4GG\	8Bn/L	.
.	8c/	.
4B- 4C\	8c#X/	.
.	8d/	.
4GG\	8e-/	.
.	8en/J	.
=277	=277	=277
4AA- 4FF\	8f\L	<
.	8g\	.
4A- 4C\	8a-\	.
.	8cc\	.
4AA- 4FF\	8ff\	.
.	8ccc\J	.
=278	=278	=278
4AA-\	4fff 4ccc 4ff\	[
.	.	f
4c 4F\	2ff 2cc 2f\	.
4AA-\	.	.
!!LO:LB:g=original
=279	=279	=279
4GG\	4eee- 4ccc 4ee-\	.
*	*2\right	*
4c 4E-\	2ee- 2cc 2e-\	.
4GG\	.	.
=280	=280	=280
4GGG/	4ddd 4gg 4dd\	.
4Bn 4F\	2dd 2g 2d\	.
4GG\	.	.
=281	=281	=281
4e-: 4E-: 4C:\	8cc\L	mf
.	8g\	.
4r	8a-M\	.
.	8g\	.
4r	8gg\	.
.	8g\J	.
=282	=282	=282
4D\	8f#X\L	.
.	8g\	.
4f 4G\	8a-\	.
.	8an\	.
4D\	8b-\	.
.	8bn\J	.
=283	=283	=283
4E-\	8cc\L	<
.	8cc\	.
.	8qee-/	.
4g 4c\	8dd\	.
.	8cc\	.
4E-\	8ccc\	.
.	8cc\J	.
*clefG2	*	*
=284	=284	=284
4G/	8bn\L	.
.	8cc\	.
4b- 4c/	8cc#X\	.
.	8dd\	.
4G/	8ee-\	.
.	8een\J	[
!!LO:LB:g=original
=285	=285	=285
*clefG2	*	*
4A- 4F/	8ff\L	f
.	8gg\	.
4a- 4c/	8aa-\	.
.	8ccc\	.
*	*8va	*
4A- 4F/	8fff\	.
.	8cccc\J	.
=286	=286	=286
4A-/	4ffff 4cccc 4fff\	.
*	*X8va	*
4cc 4f/	2fff 2ccc 2ff\	.
4A-/	.	.
=287	=287	=287
*	*8va	*
4G/	4eeee- 4cccc 4eee-\	.
*	*X8va	*
*	*2\left	*
4cc 4e-/	2eee- 2ccc 2ee-\	.
4G/	.	.
*clefF4	*	*
=288	=288	=288
*	*8va	*
4GG\	4dddd 4ggg 4ddd\	.
*clefG2	*	*
*	*X8va	*
4bn 4f\	2ddd 2gg 2dd\	.
4G/	.	.
=289	=289	=289
*	*2\right	*
8A-/L	[2.ccc [2.aa- [2.ee- [2.cc\	f
8e-/	.	.
8en/	.	.
!	!LO:TX:b:i:t=molto espressivo	!
8f/	.	.
8f#X/	.	.
8g/J	.	.
=290	=290	=290
8a-/L	4ccc] 4aa-] 4ee-] 4cc\]	.
8g/	.	.
8g-X/	4bbn 4bn\	.
8f/	.	.
8f-X/	4ccc 4cc\	.
!LO:TX:a:t=P:problem:klucz po kresce taktowej	!	!
8e-/J	.	.
!!LO:LB:g=original
*clefF4	*	*
=291	=291	=291
8F\L	4eee- 4aa- 4ee-\	.
8d-X\	.	.
8f\	4ddd-X 4dd-X\	.
8d-\	.	.
8A-\	4ccc 4cc\	.
8d-\J	.	.
=292	=292	=292
*	*2\left	*
8G\L	2.bb- 2.ee- 2.dd-X 2.b-\	.
8B-\	.	.
8G\	.	.
8E-\	.	.
8BB-\	.	.
8EE-\J	.	.
=293	=293	=293
*	*^	*
*2\right	*	*	*
[2.E- [2.AA-\	2.e-/	8e-L 8c\	.
.	.	8a-\	.
.	.	8g\	.
.	.	8a-\	.
.	.	8cc\	.
.	.	8aa-\J	.
*	*v	*v	*
=294	=294	=294
4E-] 4AA-\]	8gg\L	.
.	8aa-\	.
*	*8va	*
4d\	8ccc\	.
.	8aaa-\	.
4c\	8ggg\	.
.	8aaa-\J	.
=295	=295	=295
4g 4A- 4F\	8ccc\L	.
.	8aaa-\	.
4f\	8ccc\	.
.	8aa-\J	.
*	*X8va	*
4e-\	8aa-\L	.
.	8cc\J	.
=296	=296	=296
4d 4G\	8bn\L	.
.	8gg\	.
4r	8b\	.
.	8g\J	.
8g\L	4ryy	.
8Bn\J	.	.
!!LO:PB:g=original
=297	=297	=297
[2.c [2.A-\	8r	.
.	8e-/L	.
.	8en/	.
.	8f/	.
.	8f#X/	.
.	8g/J	.
=298	=298	=298
*^	*	*
4c/]	2.A-\]	8a-\L	.
.	.	8ee-\	.
4Bn/	.	8ff\	.
.	.	8gg\	.
4c/	.	8aa-\	.
.	.	8ee-\J	.
=299	=299	=299	=299
4e-/	2.A- 2.F\	8ff\L	.
.	.	8gg\	.
4d-X/	.	8aa-\	.
.	.	8fff\	.
4B-/	.	8aaa-\	.
.	.	8fff\J	.
=300	=300	=300	=300
2.B-/	2.G\	8eee-\L	.
.	.	8fff\	.
.	.	8eee-\	.
.	.	8bb-\	.
.	.	8ee-\	.
.	.	8b-\J	.
*v	*v	*	*
=301	=301	=301
8c\L	[2.ee- [2.a- [2.e-\	.
8Bn\	.	.
8c\	.	.
8A-\	.	.
8G\	.	.
8A-\J	.	.
=302	=302	=302
8c\L	4ee-] 4a-] 4e-\]	.
8A-\	.	.
8E-\	4dd 4d\	.
8A-\	.	.
8E-\	4ee- 4e-\	.
8C\J	.	.
=303	=303	=303
8FF\L	4gg 4a- 4g\	.
8C\	.	.
8D\	4ff 4f\	.
8C\	.	.
8A-\	4ee- 4e-\	.
8c\J	.	.
!!LO:LB:g=original
=304	=304	=304
*	*2\right	*
8Bn\L	2.dd 2.g 2.d\	.
8G\	.	.
8D\	.	.
8BBn\	.	.
8GG\	.	.
8GGG\J	.	.
=305	=305	=305
!	!LO:TX:b:i:t=con gran forza al fine	!
8EEE-/L	2.gg 2.cc 2.g\	.
8EE-/	.	.
8DDD/	.	.
8DD/	.	.
8EEE-/	.	.
8EE-/J	.	.
=306	=306	=306
8FFF/L	2aa- 2cc 2a-\	.
8FF/	.	.
8EEEn/	.	.
8EEn/	.	.
8FFF/	4cc 4a- 4c\	.
8FF/J	.	.
=307	=307	=307
8GGG/L	4bn 4g 4Bn\	.
8GG/	.	.
8FFF#X/	4b 4g 4B\	.
8FF#X/	.	.
8GGG/	4gg 4b 4g\	.
8GG/J	.	.
=308	=308	=308
8CC/L	2ee- 2cc 2e-\	.
8C/	.	.
8BBBn/	.	.
8BBn/	.	.
8CC/	4cc 4c\	.
8C/J	.	.
=309	=309	=309
*	*8va	*
*	*^	*
8EE-/L	2.ggg 2.gg\	4ccc\	.
8E-/	.	.	.
8DD/	.	4bbn\	.
8D/	.	.	.
8EE-/	.	4ccc\	.
8E-/J	.	.	.
*	*v	*v	*
=310	=310	=310
8FF/L	4aaa- 4ccc 4aa-\	.
8F/	.	.
8EEn/	4aaa- 4ccc 4aa-\	.
8En/	.	.
8FF/	4ccc 4aa- 4cc\	.
8F/J	.	.
!!LO:LB:g=original
=311	=311	=311
8GG\L	4bbn 4gg 4bn\	.
8G\	.	.
8FF#X\	4bb 4gg 4b\	.
8F#X\	.	.
8GG\	4ggg 4bb 4gg\	.
8G\J	.	.
=312	=312	=312
8C\L	4eee- 4ccc 4ee-\	.
8c\	.	.
8BBn\	4eee- 4ccc 4ee-\	.
8Bny\	.	.
8C\	4ccc 4cc\	.
8c\J	.	.
*	*X8va	*
=313	=313	=313
8CL 8CC\	8r	.
!	!	!LO:DY:t=ff. e accelerando
!	!LO:TX:t=P:problem:cross-measure beam (tt.313-317)	!
8r	8ee-L 8e-\	ff
8BBn 8BBBn\	8r	.
8r	8dd 8d\	.
8CJ 8CC\	8r	.
8r	8ee- 8e-\	.
=314	=314	=314
8DL 8DD\	8r	.
8r	8ff 8f\	.
8C#X 8CC#X\	8r	.
8r	8een 8en\	.
8DJ 8DD\	8r	.
8r	8ff 8f\	.
=315	=315	=315
!LO:TX:t=P:problem:cross-measure beam (tt.315-316)	!	!
8E-L 8EE-\	8r	.
8r	8gg 8g\	.
8d 8D\	8r	.
8r	8ff#X 8f#X\	.
8e- 8E-\	8r	.
8r	8gg 8g\	.
=316	=316	=316
8a- 8A-\	8r	.
8r	8ccc 8cc\	.
8g 8G\	8r	.
8r	8bbn 8bn\	.
8e-J 8E-\	8r	.
8r	8ccc 8cc\	.
=317	=317	=317
8cL 8C\	8r	.
8r	8eee- 8ee-\	.
8Bn 8BBn\	8r	.
8r	8ddd 8dd\	.
8B-XJ 8BB-X\	8r	.
8r	8eee-J 8ee-\	.
!!LO:LB:g=original
=318	=318	=318
!	!LO:TX:a:i:t=Con 8va	!
8A-L 8AA-\	8r	.
*	*8va	*
!	!LO:TX:t=P:problem:cross-measure beam (tt.318-320)	!
8r	8fffL 8ff\	.
8G 8GG\	8r	.
8r	8eeen 8een\	.
8FJ 8FF\	8r	.
8r	8fff 8ff\	.
=319	=319	=319
8E-L 8EE-/	8r	.
8r	8ggg 8gg\	.
8D 8DD/	8r	.
8r	8fff#X 8ff#X\	.
8CJ 8CC/	8r	.
8r	8ggg 8gg\	.
=320	=320	=320
8AA-L 8AAA-/	8r	.
8r	8cccc 8ccc\	.
8GG 8GGG/	8r	.
8r	8bbbn 8bbn\	.
8EE-J 8EEE-/	8r	.
8r	8ccccJ 8ccc\	.
=321	=321	=321
4CC 4CCC/	4eeee- 4eee-\	.
*	*X8va	*
!	!LO:TX:a:i:t=loco	!
4r	4r	.
4r	4r	.
*clefG2	*	*
=322	=322	=322
4bn 4f 4G/	4ggg 4ddd 4gg\	.
4r	4r	.
4r	4r	.
=323	=323	=323
4cc 4g 4e- 4c/	4eee- 4gg 4ee-\	.
4r	4r	.
4r	4r	.
*clefF4	*	*
=324	=324	=324
4Bn 4F 4GG\	4gg 4dd 4g\	.
4r	4r	.
4r	4r	.
=325	=325	=325
4C 4CC\	4ee- 4g 4e-\	.
4r	4r	.
4r	4r	.
!!LO:LB:g=original
=326	=326	=326
4r	4r	.
!	!LO:N:vis=1	!
2r	2r	.
*clefG2	*	*
=327	=327	=327
*	*8va	*
4ee- 4cc 4g 4e-\	4cccc 4ggg 4ccc\	.
*	*X8va	*
4r	4r	.
4r	4r	.
=328	=328	=328
4r	4r	.
!LO:N:vis=1	!LO:N:vis=1	!
2r	2r	.
!LO:CL:ed	!	!
*clefF4	*	*
=329	=329	=329
!	!LO:TX:b:i:t=Fine.	!
8qCC 8qCCC\	8qc< 8qG< 8qE-< 8qC</	.
2.CC 2.CCC\	2.c< 2.G< 2.E-< 2.C<;/	.
==	==	==
*-	*-	*-
!!!system-decoration: {(s1,s2)}
!!!RDF**kern: > = above
!!!RDF**kern: < = below
!!!RDF**dynam: p = "p."
!!!ENC: Marta Lawrence
!!!END: 2021-05-24
!!!ENC: Katarzyna Serwa
!!!END: 2021-05-08
